icons-rebrand/svg/bluetooth-container-muted-bold.svg

<svg width="32" height="32" viewBox="0 0 32 32" fill="none" xmlns="http://www.w3.org/2000/svg">
<path d="M14.9999 19.2339V23.9989C14.9998 24.176 15.0467 24.3499 15.1358 24.503C15.2249 24.656 15.353 24.7826 15.5071 24.8699C15.6612 24.9571 15.8357 25.0019 16.0128 24.9996C16.1898 24.9974 16.3631 24.9481 16.5149 24.8569L19.0819 23.3169L17.6249 21.8579L16.9999 22.2329V21.2329L14.9999 19.2329V19.2339ZM11.7069 21.7069L14.5899 18.8239L13.1759 17.4099L10.2929 20.2929C10.1108 20.4815 10.01 20.7341 10.0122 20.9963C10.0145 21.2585 10.1197 21.5093 10.3051 21.6947C10.4905 21.8801 10.7413 21.9853 11.0035 21.9876C11.2657 21.9899 11.5183 21.8891 11.7069 21.7069Z" fill="#0F0F0F"/>
<path d="M15.9999 28C10.4859 28 5.99992 22.617 5.99992 16C5.99757 14.3307 6.29461 12.6745 6.87692 11.11L5.34692 9.581C4.45364 11.6028 3.99475 13.7896 3.99992 16C3.99992 23.72 9.38292 30 15.9999 30C18.6016 29.9755 21.1075 29.0157 23.0599 27.296L21.6539 25.889C20.0752 27.2339 18.0738 27.9808 15.9999 27.999V28ZM28.7069 27.293L25.6699 24.255C27.2077 21.7773 28.0152 18.9161 27.9999 16C27.9999 8.28 22.6169 2 15.9999 2C14.3729 2.02568 12.7712 2.40624 11.3065 3.11509C9.84181 3.82394 8.54954 4.84399 7.51992 6.104L4.70692 3.293C4.51832 3.11084 4.26571 3.01005 4.00352 3.01233C3.74132 3.0146 3.49051 3.11977 3.3051 3.30518C3.11969 3.49059 3.01452 3.7414 3.01224 4.0036C3.00997 4.2658 3.11076 4.5184 3.29292 4.707L5.48292 6.897C5.49092 6.904 5.49992 6.906 5.50692 6.913L27.3169 28.722C27.5089 28.8935 27.7597 28.9842 28.017 28.9752C28.2743 28.9661 28.5181 28.858 28.6975 28.6734C28.877 28.4888 28.9781 28.242 28.9799 27.9846C28.9816 27.7272 28.8838 27.479 28.7069 27.292V27.293ZM17.4139 16L21.7069 11.707C21.8145 11.5996 21.8961 11.4691 21.9457 11.3253C21.9952 11.1816 22.0114 11.0285 21.9928 10.8776C21.9743 10.7268 21.9217 10.5821 21.8389 10.4546C21.756 10.3271 21.6453 10.2202 21.5149 10.142L16.5149 7.142C16.3631 7.0508 16.1898 7.00155 16.0128 6.99927C15.8357 6.997 15.6612 7.04178 15.5071 7.12904C15.353 7.21631 15.2249 7.34293 15.1358 7.49595C15.0467 7.64897 14.9998 7.82292 14.9999 8V13.586L8.93192 7.518C9.77615 6.44496 10.8481 5.57276 12.0704 4.96438C13.2927 4.356 14.6348 4.02661 15.9999 4C21.5139 4 25.9999 9.382 25.9999 16C26.014 18.3863 25.4016 20.7345 24.2239 22.81L17.4139 16ZM16.9999 13.584V9.767L19.3869 11.199L16.9999 13.585V13.584Z" fill="#0F0F0F"/>
</svg>

<svg width="32" height="32" viewBox="0 0 32 32" fill="none" xmlns="http://www.w3.org/2000/svg"><path d="M15 19.234v4.765a1 1 0 0 0 1.515.858l2.567-1.54-1.457-1.459-.625.375v-1l-2-2zM11.707 21.707l2.883-2.883-1.414-1.414-2.883 2.883a1 1 0 0 0 1.414 1.414z" fill="#0F0F0F"/><path d="M16 28c-5.514 0-10-5.383-10-12a13.962 13.962 0 0 1 .877-4.89l-1.53-1.529A15.792 15.792 0 0 0 4 16c0 7.72 5.383 14 12 14a10.836 10.836 0 0 0 7.06-2.704l-1.406-1.407A8.839 8.839 0 0 1 16 27.999zM28.707 27.293l-3.037-3.038A15.5 15.5 0 0 0 28 16c0-7.72-5.383-14-12-14A11.179 11.179 0 0 0 7.52 6.104L4.707 3.293a1 1 0 0 0-1.414 1.414l2.19 2.19c.008.007.017.009.024.016l21.81 21.809a.998.998 0 0 0 1.39-1.43zM17.414 16l4.293-4.293a1 1 0 0 0-.192-1.565l-5-3A1 1 0 0 0 15 8v5.586L8.932 7.518A9.222 9.222 0 0 1 16 4c5.514 0 10 5.382 10 12a13.637 13.637 0 0 1-1.776 6.81L17.414 16zM17 13.584V9.767l2.387 1.432L17 13.585z" fill="#0F0F0F"/></svg>
